X: 04093
T: TOO HOT TO HANDLE!
C: Bob McQuillen 29 June'79
B: Bob's Note Book 04 #93
%R: jig
Z: 2020 John Chambers <jc:trillian.mit.edu>
M: 6/8
L: 1/8
K: D
FG \
| AFA fed | BdB A2a | fga fed | dcd eFG |\
| AFA fed | BdB Adf | agf gec | edd d :|
|: FG \
| AFD DFG | AFA dcd | e2c Acd | e2f gfe |\
| aba gag | fef dBA | GAB ABc | dDD D :|
%%begintext align
%% That's the trade-mark of my
%% friend Eddie Kellog's THTH
%% Skateboard Company, and this
%% tune is for you, Eddie, with
%% Best Wishes always from Mr. Mac.
%%endtext

%%sep 1 1 500

%%sep 1 1 500

